X:7
T:Fyrabe-Juiz  Bb  ABAC
T:Anni Wallimann  (23.8.1928-31.2.2014)
T:Dirigenten-Notiz, Edi Gasser
C:Unterwalden (CH)
%%partsbox
P:ABAC
M:3/4
R:Naturjodel
L:1/8
K:Bb
[P:A] f2d2B2 | G3DF2 | DFd2cB | A3FE2 | f2e2A2 | G3CF2 | F2f2cf | d3cB2 
f2d2B2 | G3DF2 | DFd2cB | A3FE2 | f2e2A2 | G3CF2 | Ffe2dc | B6 ||  
M:3/4
[P:B] FF FD Ff | d2dcB2 | BA GD FB | Ac fdc2 | F2eF Ac | 
f2feF2 | f2eF Ag | f2fdB2 | FF FD Ff | d2 dcB2 | 
BA GD FB | Ac fd c2 | F2eF Ac | f2feF2 | f2edc2 | B6 ||  
M:3/4
[P:C] f2gf df | ecB2D2 | FD FBA2 | c2fe dc | B2dBF4 
f2gf df | ecB2D2 | FD FBA2 | c2fe dc | B4z2 |] 
W:
%W:A-B-A-C:
W: notiert Edi Gasser. Angaben: Anni Wallimann
W:
W:UJV-Naturjodelsammlung: Code-Nr: 06-04
W:http://www.naturjodler.ch/code 06.htm  (with AUDIO)
%May 1, 2018

